!!!OTL: Xinda lunchuan xia jianghe
!!!ARE: Asia, China,ÿJiangsu, Nanjing
!! III, 506
!!!SCT: C1591
!!!YEM: Copyright 1995, estate of Helmut Schaffrath.
**kern
*ICvox
*Ivox
*M2/4
*k[f#]
*G:
{8dd
16b
16a
8dd
16b
16a
=1
4g
4g
=2
8.a
16b
4dd
=3
8dd
8a
8dd
16b
16a
=4
4g
4g}
=5
{8b
16b
16b
8a
8g
=6
16g
16a
16g
16e
4d
=7
16e
16g
16d
16e
4g
=8
8a
8e
16g
16a
16g
16e
=9
4d
4d}
==
!!!AGN: Shange, Maoyuzishu diao
!!!AMT: simple duple
!!!AIN: vox
!!!EED: Helmut Schaffrath
!!!EEV: 1.0
*-
